!!!Genre:	Skotshne
!!!Mode:	Freygish
!!!Listening/dance:	listening
!!!:	*c:; *g:
!!!One_Mode:	no
!!!Orig_tonic: unknown
**kern
*I"P1
*clefG2
*k[b-e-a-]
*G:frey
*M2/4
*>A
=1
16bnLL
16a-J
[8gJ
8gL]
24bnL
24dd
24ccJJ
=2
8bnL
8a-
8g
8fJ
=3
16enLL
16f
16g
16a-JJ
16bnLL
16cc
16b
16a-JJ
=4
(8gL
8ggJ)
8.ddL
16ccJk
=5:|!
4g
4g
*>bM
*c:
=6||
*>B
4gg
4gg
=7
16ffLL
16een
16ff
16ggJJ
16aa-LL
16gg
16ff
16eeJJ
=8
4ff
4ff
=9
(16qqee-X/LL
16qqff/JJ
16ee-LL)
16dd
16ee-
16ffJJ
16ggLL
16ff
16ee-
16ddJJ
=10
4ee-
(8qff/
4ee-)
=11
(16qqee-X/LL
16qqff/JJ
16ee-LL)
16dd
16ee-
16ffJJ
8ee-L
8ddJ
=12
8ccL
16ccL
16ggJJ
8.ff#XL
16ee-Jk
=13
8ee-
4dd
8g
*>eM
*>bM
*B-:
=14||
*>C
*k[b-e-]
8ddL
16ddL
16ffnJJ
8ee-L
8ddJ
=15
8ccL
16ccL
16ee-JJ
8ddL
8ccJ
=16
(16qqb-/LL
16qqcc/JJ
16b-LL)
16a
16b-
16ccJJ
8.ddL
16ccJk
=17
8cc
4b-
8b-
*>eM
*>bM
*g:
=18
16aLL
16b-JJ
4cc
16b-LL
16aJJ
=19
4g
8.fL
16fJk
=20
(16fLL
16b-)
(16b-
16ddJJ)
8ffL
16ee-L
16ddJJ
=21
4..cc
16f
=22
(16fLL
16b-)
(16b-
16ddJJ)
8ffL
16ee-L
16ddJJ
=23
(16qqcc/LL
16qqdd/JJ
16ccLL)
16b-
16cc
16ddJJ
8.ccL
16b-Jk
=24
(16b-LL
16a)
(16a
16b-JJ)
(16b-LL
16a-)
(16a-
16gJJ)
=25
2g
*>eM
==
*-
